X:0453
T:John Roy Stewart.
M:C|
L:1/8
Q:1/4=120
I: :: ||
Z:Jack Campin * www.campin.me.uk * 2009
K:G
g|d>cB>A  G>AB>c       |d>GB>G         d>GB>g  |d>cB>A G>AB>G|E<ee>d e2e:|
g|d>eg>a  g/a//b//g  ab|gd {e}dc/B/    g(dd)e  |d>eg>a bgab  |e<aa>g e2e
g|d>eg>a (g//a//b/)g ab|gd    e/d/c/B/ gd dg/a/|b>ga>b G>ABG |E<ee>d e2e|]
<end>
<start>
